icons/strikethrough-2.svg

<svg xmlns="http://www.w3.org/2000/svg" viewBox="0 0 24 24">
    <g>
        <path fill="none" d="M0 0h24v24H0z"/>
        <path d="M13 9h-2V6H5V4h14v2h-6v3zm0 6v5h-2v-5h2zM3 11h18v2H3v-2z"/>
    </g>
</svg>

<svg viewBox="0 0 24 24" fill="currentColor" xmlns="http://www.w3.org/2000/svg"><path d="M13 9H11V6H5V4H19V6H13V9ZM13 15V20H11V15H13ZM3 11H21V13H3V11Z"/></svg>
